img/checkmark-white.svg

<svg fill="none" height="32" viewBox="0 0 33 32" width="33" xmlns="http://www.w3.org/2000/svg"><path d="m9.27759 5.1909c2.13781-1.42846 4.65121-2.1909 7.22241-2.1909 3.4478 0 6.7544 1.36964 9.1924 3.80761s3.8076 5.74459 3.8076 9.19239c0 2.5712-.7624 5.0846-2.1909 7.2224-1.4284 2.1379-3.4588 3.8041-5.8342 4.788-2.3754.984-4.9893 1.2414-7.5111.7398-2.5217-.5016-4.8381-1.7397-6.65618-3.5578s-3.05621-4.1345-3.55782-6.6562c-.50161-2.5218-.24417-5.1356.73977-7.5111.98394-2.37542 2.65018-4.40575 4.78802-5.8342z" fill="#408053" stroke="#fff" stroke-width="2"/><path d="m14.5 21.591-5-5 1.591-1.591 3.409 3.409 7.41-7.409 1.595 1.585z" fill="#fff"/></svg>

<svg width="33" height="32" viewBox="0 0 33 32" fill="none" xmlns="http://www.w3.org/2000/svg">
<path d="M9.27759 5.1909C11.4154 3.76244 13.9288 3 16.5 3C19.9478 3 23.2544 4.36964 25.6924 6.80761C28.1304 9.24558 29.5 12.5522 29.5 16C29.5 18.5712 28.7376 21.0846 27.3091 23.2224C25.8807 25.3603 23.8503 27.0265 21.4749 28.0104C19.0995 28.9944 16.4856 29.2518 13.9638 28.7502C11.4421 28.2486 9.1257 27.0105 7.30762 25.1924C5.48954 23.3743 4.25141 21.0579 3.7498 18.5362C3.24819 16.0144 3.50563 13.4006 4.48957 11.0251C5.47351 8.64968 7.13975 6.61935 9.27759 5.1909Z" fill="#408053" stroke="white" stroke-width="2"/>
<path d="M14.5 21.591L9.5 16.591L11.091 15L14.5 18.409L21.91 11L23.505 12.585L14.5 21.591Z" fill="white"/>
</svg>
